X: 2461
T: Balls To Hall
R: jig
M: 6/8
K: Eminor
|:GEE AEE|BEE cBA|BcB BAG|FAd DEF|
GEE AEE|BEE cBA|BcB B2A|1 GBE E2F:|2 GBE E2B||
K:Emaj
|:B2e ~e2f|gag gfe|cac gag|fgf edc|B2e ~e2f|
gag gfe|1 bee aee|geg f2e:|2 aef =dAB|FEF =DEF||

